X:1
T:Title
%%score { ( 1 3 5 ) | ( 2 4 6 ) }
L:1/8
M:6/8
K:Ab
V:1 treble nm="Grand Piano"
V:3 treble 
V:5 treble 
V:2 bass 
V:4 bass 
V:6 bass 
V:1
 z3 z2[Q:1/4=92] [CE] | [CA][CA][CA] [Ec]>[DB][CA] | [DF] [CE]2- [CE]2 [CE]/[CE]/ | %3
 A>A[CA] [Ec]<[Ec][Ee] | B3- B2 c/d/ | e>cB ABc | [Fd] [Fd]2- [Fd]2 [Fd] | %7
[M:27/32] e/4-e/4-e/4-e/4-e/4-e/4-e/-<e/ z/4 z/4 z/4 z/4 z/ B/-[Bc-]/4c/4-c/-<c/-[_D-E-B-c]/[DEB]/4[Q:1/4=91][Q:1/4=89][Q:1/4=88][Q:1/4=87][Q:1/4=85][Q:1/4=84] | %8
[M:5/8] [CEA]-[CEA]- [CEA]3[Q:1/4=83][Q:1/4=81][Q:1/4=80][Q:1/4=78][Q:1/4=77][Q:1/4=76][Q:1/4=74][Q:1/4=73][Q:1/4=72][Q:1/4=70] |] %9
V:2
 z3 z2 [A,,A,] | [A,,E,]2 [A,,E,] [A,,A,]>[A,,A,][A,,A,] | [A,,A,]3- [A,,A,]2 [A,,A,] | %3
 [A,,E,]2 [A,,E,] [A,,A,]2 [C,A,] | z3 z2 [A,E] | [A,CA]2 D [A,CE][G,B,E][A,_G] | %6
 [D,A,]3- [D,A,]2 [D,A,] | %7
[M:27/32] A,/4-A,/4-A,/4-A,/4-A,/-<A,/A,/[F,A,]/4-[F,A,]/4-[F,A,]/4-[F,A,]/4-[F,A,]/-<[F,A,]/[D,A,]/4-[D,A,]/4-[D,A,]/4-[D,A,]/4-[D,A,]/-<[D,A,]/ z/4 | %8
[M:5/8] A,,-A,,- A,,3 |] %9
V:3
 x6 | x6 | x6 | .C3 z3 | x6 | x6 | x6 | %7
[M:27/32] E/4-E/4-E/4-E/4-E/-<E/[Ec]3/4 z/4 z/4 z/4 z/ E/E/4-E/4-E/-<E/ z/4 z/ |[M:5/8] x5 |] %9
V:4
 x6 | x6 | x6 | x6 | [E,G,E]3- [E,G,E]2 z/ B,/ | z z/ [A,E]3/2 z3 | x6 | %7
[M:27/32] z/4 z/4 z/4 z/4 z/4 z/4 z/4 z/4 z/4 z/4 z/4 z/4 z/4 z/4 z/ [E,G,]3/4 z/4 z/4 z/4 z/4 z/4 z/4 z/ | %8
[M:5/8] x5 |] %9
V:5
 x6 | x6 | x6 | x6 | x6 | x6 | x6 | %7
[M:27/32] z/4 z/4 z/4 z/4 z/4 z/4 z/4 z/4 z/ [=DA]/4-[DA]/4-[DA]/4-[DA]/4-[DA]/-<[DA]/ z/4 z/4 z/4 z/4 z/4 z/4 z/4 z/ | %8
[M:5/8] x5 |] %9
V:6
 x6 | x6 | x6 | x6 | x6 | x6 | x6 | %7
[M:27/32] C,/4-C,/4-C,/4-C,/4-C,/-<C,/-[A,,-C,]/A,,/4 z/4 z/4 z/4 z/4 z/4 z/4 z/4 z/4 z/4 z/4 z/4 z/ E,3/4 | %8
[M:5/8] x5 |] %9

